Origami/64x64/apps/codeblocks.svg

<svg width="64" height="64" version="1" xmlns="http://www.w3.org/2000/svg">
 <path d="m4 55v2c0 1.662 1.338 3 3 3h50c1.662 0 3-1.338 3-3v-2c0 1.662-1.338 3-3 3h-50c-1.662 0-3-1.338-3-3z" style="opacity:.2"/>
 <g transform="matrix(2,0,0,2,0,-1)">
  <path d="m16 2h-12.5c-0.831 0-1.5 0.669-1.5 1.5v12.5h14z" style="fill:#e44545"/>
  <path d="m16 2h12.5c0.831 0 1.5 0.669 1.5 1.5v12.5h-14z" style="fill:#38ac52"/>
  <path d="m16 30h-12.5c-0.831 0-1.5-0.669-1.5-1.5v-12.5h14z" style="fill:#f2ae37"/>
  <path d="m16 30h12.5c0.831 0 1.5-0.669 1.5-1.5v-12.5h-14z" style="fill:#37a0f2"/>
 </g>
 <path d="m7 3c-1.662 0-3 1.338-3 3v1c0-1.662 1.338-3 3-3h50c1.662 0 3 1.338 3 3v-1c0-1.662-1.338-3-3-3h-50z" style="fill:#ffffff;opacity:.1"/>
</svg>

<svg xmlns="http://www.w3.org/2000/svg" width="64" height="64" version="1">
 <path style="opacity:0.2" d="m 4,55 0,2 c 0,1.662 1.338,3 3,3 l 50,0 c 1.662,0 3,-1.338 3,-3 l 0,-2 c 0,1.662 -1.338,3 -3,3 L 7,58 C 5.338,58 4,56.662 4,55 Z"/>
 <g transform="matrix(2,0,0,2,0,-1)">
  <path style="fill:#e44545" d="M 16,2 3.5,2 C 2.669,2 2,2.669 2,3.5 L 2,16 16,16 Z"/>
  <path style="fill:#38ac52" d="M 16,2 28.5,2 C 29.331,2 30,2.669 30,3.5 L 30,16 16,16 Z"/>
  <path style="fill:#f2ae37" d="M 16,30 3.5,30 C 2.669,30 2,29.331 2,28.5 L 2,16 16,16 Z"/>
  <path style="fill:#37a0f2" d="m 16,30 12.5,0 C 29.331,30 30,29.331 30,28.5 L 30,16 16,16 Z"/>
 </g>
 <path style="opacity:0.1;fill:#ffffff" d="M 7 3 C 5.338 3 4 4.338 4 6 L 4 7 C 4 5.338 5.338 4 7 4 L 57 4 C 58.662 4 60 5.338 60 7 L 60 6 C 60 4.338 58.662 3 57 3 L 7 3 z"/>
</svg>
